X:1
T:Remember the Alamo
M:2/4
L:1/16
K:A
 E2| E3 E E3 C| E3 F A3 A| F3 F F3 E| F3 G A3| B| c3 c B3 G| A3 B c3 B|\
 A5.3333335/4 F5.3333335/4 F5.3333335/4 F3 E| E6| E2| c3 c c3 B| c3 d e3 c|\
 B3 B B3 A| B3 c d3| d| e3 c B3 G| A3 B c3 c| A5.3333335/4 F5.3333335/4 F5.3333335/4 F2E2|\
 E6||
